X:1
T:Balleterach Strathspey  (Once the residence of Lord Byron)
T:Balleterach Strathspey  (Once the residence of Lord Byron)
T:Alexander Walker
C:Alexander Walker
L:1/8
M:4/4
K:Eb
V:1 treble 
V:1
 B, | E>GF>G E<B,B,>C | E>GC>E F2 F>d | e>B c/d/e/c/ B<G E>G | C>F E/D/C/B,/ ([G,E-]2 [B,E]) :| %5
 E>BG>B E>BG>B | e>Bg>B d<ff>g | e>BG>B E>BG>B | C>F (E/D/)(C/B,/) (E2 E>)B | e>BG>B E>BG>B | %10
 E>Bg>B d<ff>g | b>ga>f g>ef>d | e>cB<a gee || %13

